apps/www/public/images/product/database/branching-light.svg

<svg width="297" height="275" viewBox="0 0 297 275" fill="none" xmlns="http://www.w3.org/2000/svg">
<path d="M46.7368 234.398L503.824 234.398" stroke="#DFDFDF" stroke-linecap="round"/>
<path d="M62.8398 234.398H83.6692C94.3555 234.398 104.22 228.664 109.509 219.378L122.031 197.392C127.673 187.487 138.195 181.371 149.594 181.371L178.118 181.371" stroke="#DFDFDF" stroke-linecap="round"/>
<path d="M62.593 234.398H78.6864C87.2903 234.398 95.0899 229.339 98.5982 221.483L128.169 155.266C133.065 144.303 143.949 137.244 155.955 137.244H479.301" stroke="#DFDFDF" stroke-linecap="round"/>
<path d="M157.751 137.243H173.392C182.225 137.243 190.186 131.914 193.553 123.748L223.612 50.8325C228.31 39.4363 239.42 32 251.746 32H499.902" stroke="#DFDFDF" stroke-linecap="round"/>
<path d="M157.751 137.244H173.392C182.225 137.244 190.186 131.915 193.553 123.748L200.455 107.005" stroke="url(#paint0_linear_964_5303)" stroke-width="0.495616" stroke-linecap="round"/>
<path d="M62.593 234.398H78.6864C87.2903 234.398 95.0899 229.339 98.5982 221.483L128.169 155.266C133.065 144.303 143.949 137.244 155.955 137.244H270.481" stroke="url(#paint1_linear_964_5303)" stroke-width="0.495616" stroke-linecap="round"/>
<path d="M52.1978 234.398H83.6693C94.3556 234.398 104.22 228.664 109.509 219.378L122.031 197.392C127.673 187.487 138.195 181.371 149.594 181.371H153.111" stroke="url(#paint2_linear_964_5303)" stroke-width="0.495616" stroke-linecap="round"/>
<rect x="165.125" y="170.647" width="123.533" height="19.1939" rx="9.59697" fill="#FCFCFC"/>
<rect x="165.125" y="170.647" width="123.533" height="19.1939" rx="9.59697" stroke="#E8E8E8"/>
<path d="M191.273 182.744V177.203H194.757V178.017H192.238V179.604H194.379V180.418H192.238V182.744H191.273ZM196.584 182.744V177.203H200.085V178.017H197.549V179.453H199.698V180.267H197.549V181.921H200.169V182.744H196.584ZM201.332 182.744L203.112 177.203H204.246L206.025 182.744H205.001L204.573 181.233H202.751L202.315 182.744H201.332ZM202.961 180.469H204.363L204.17 179.78C204.002 179.193 203.834 178.571 203.675 177.958H203.641C203.49 178.571 203.322 179.193 203.154 179.78L202.961 180.469ZM208.641 182.744V178.017H206.92V177.203H211.345V178.017H209.615V182.744H208.641ZM212.374 183.055L215.967 176.783H216.799L213.197 183.055H212.374ZM218.147 182.744V177.203H219.129L220.607 180.343L221.119 181.518H221.144C221.102 180.947 221.01 180.25 221.01 179.638V177.203H221.933V182.744H220.943L219.473 179.596L218.961 178.429H218.936C218.978 179.016 219.07 179.68 219.07 180.292V182.744H218.147ZM223.853 182.744V177.203H227.353V178.017H224.818V179.453H226.967V180.267H224.818V181.921H227.437V182.744H223.853ZM229.273 182.744L228.484 177.195H229.466L229.777 180.418C229.793 180.889 229.827 181.35 229.852 181.812H229.877C229.978 181.35 230.096 180.88 230.196 180.418L230.675 178.622H231.296L231.766 180.418C231.859 180.872 231.985 181.342 232.085 181.812H232.119L232.194 180.418L232.488 177.195H233.403L232.656 182.744H231.624L231.137 180.695C231.069 180.36 231.002 179.999 230.96 179.671H230.935C230.885 179.999 230.826 180.36 230.75 180.695L230.289 182.744H229.273ZM234.533 180.318V179.621H238.269V180.318H234.533ZM239.928 182.744V177.203H240.961L241.725 179.369L241.994 180.2H242.027L242.279 179.369L243.043 177.203H244.076V182.744H243.253V180.25C243.253 179.722 243.329 178.68 243.379 178.16H243.345L242.926 179.512L242.229 181.25H241.759L241.053 179.512L240.634 178.16H240.608C240.65 178.68 240.734 179.722 240.734 180.25V182.744H239.928ZM245.963 182.744V177.203H249.464V178.017H246.928V179.453H249.078V180.267H246.928V181.921H249.548V182.744H245.963ZM251.131 182.744V177.203H252.164L252.928 179.369L253.196 180.2H253.23L253.482 179.369L254.246 177.203H255.278V182.744H254.456V180.25C254.456 179.722 254.531 178.68 254.582 178.16H254.548L254.128 179.512L253.431 181.25H252.961L252.256 179.512L251.836 178.16H251.811C251.853 178.68 251.937 179.722 251.937 180.25V182.744H251.131ZM257.073 182.744V177.203H258.685C259.81 177.203 260.633 177.547 260.633 178.563C260.633 179.083 260.322 179.596 259.676 179.772V179.805C260.473 179.94 260.91 180.36 260.91 181.115C260.91 182.223 260.028 182.744 258.828 182.744H257.073ZM258.039 179.503H258.593C259.365 179.503 259.684 179.201 259.684 178.68C259.684 178.168 259.332 177.958 258.618 177.958H258.039V179.503ZM258.039 181.988H258.727C259.533 181.988 259.961 181.686 259.961 181.056C259.961 180.46 259.55 180.2 258.727 180.2H258.039V181.988ZM262.619 182.744V177.203H266.12V178.017H263.585V179.453H265.734V180.267H263.585V181.921H266.204V182.744H262.619ZM267.905 182.744V177.203H269.735C270.869 177.203 271.75 177.606 271.75 178.84C271.75 179.68 271.314 180.192 270.65 180.418L271.968 182.744H270.877L269.685 180.569H268.871V182.744H267.905ZM268.871 179.789H269.635C270.39 179.789 270.793 179.47 270.793 178.84C270.793 178.194 270.39 177.975 269.635 177.975H268.871V179.789ZM275.181 182.845C274.408 182.845 273.678 182.551 273.141 182.03L273.703 181.367C274.114 181.745 274.66 182.005 275.197 182.005C275.877 182.005 276.222 181.72 276.222 181.275C276.222 180.813 275.852 180.67 275.307 180.452L274.559 180.125C273.972 179.898 273.376 179.461 273.376 178.655C273.376 177.774 274.165 177.102 275.281 177.102C275.961 177.102 276.591 177.362 277.044 177.807L276.541 178.42C276.171 178.118 275.794 177.942 275.281 177.942C274.711 177.942 274.358 178.185 274.358 178.605C274.358 179.042 274.803 179.193 275.298 179.394L276.02 179.705C276.717 179.99 277.212 180.393 277.212 181.199C277.212 182.097 276.465 182.845 275.181 182.845Z" fill="#171717"/>
<path d="M176.169 175.658V181.371" stroke="#B2B2B2" stroke-width="0.699621" stroke-linecap="round" stroke-linejoin="round"/>
<path d="M181.765 178.514C182.538 178.514 183.165 177.875 183.165 177.086C183.165 176.297 182.538 175.658 181.765 175.658C180.993 175.658 180.366 176.297 180.366 177.086C180.366 177.875 180.993 178.514 181.765 178.514Z" stroke="#B2B2B2" stroke-width="0.699621" stroke-linecap="round" stroke-linejoin="round"/>
<path d="M176.169 184.228C176.941 184.228 177.568 183.588 177.568 182.799C177.568 182.011 176.941 181.371 176.169 181.371C175.396 181.371 174.769 182.011 174.769 182.799C174.769 183.588 175.396 184.228 176.169 184.228Z" stroke="#B2B2B2" stroke-width="0.699621" stroke-linecap="round" stroke-linejoin="round"/>
<path d="M181.766 178.514C181.766 179.651 181.323 180.741 180.536 181.544C179.749 182.348 178.681 182.799 177.568 182.799" stroke="#B2B2B2" stroke-width="0.7" stroke-linecap="round" stroke-linejoin="round"/>
<rect x="17.5" y="224.612" width="58.4739" height="18.8246" rx="9.41232" fill="#FCFCFC"/>
<rect x="17.5" y="224.612" width="58.4739" height="18.8246" rx="9.41232" stroke="#E8E8E8"/>
<path d="M44.0309 236.524V230.983H45.0635L45.8275 233.149L46.0962 233.98H46.1298L46.3816 233.149L47.1456 230.983H48.1782V236.524H47.3555V234.031C47.3555 233.502 47.431 232.461 47.4814 231.94H47.4478L47.0281 233.292L46.3312 235.03H45.8611L45.1559 233.292L44.7361 231.94H44.7109C44.7529 232.461 44.8369 233.502 44.8369 234.031V236.524H44.0309ZM49.36 236.524L51.1399 230.983H52.2733L54.0531 236.524H53.0288L52.6007 235.013H50.7789L50.3423 236.524H49.36ZM50.9888 234.249H52.3908L52.1977 233.56C52.0298 232.973 51.8619 232.352 51.7024 231.739H51.6688C51.5177 232.352 51.3498 232.973 51.1818 233.56L50.9888 234.249ZM55.3511 236.524V235.701H56.6692V231.797H55.3511V230.983H58.9695V231.797H57.6431V235.701H58.9695V236.524H55.3511ZM60.7209 236.524V230.983H61.7032L63.1808 234.123L63.6929 235.298H63.7181C63.6761 234.727 63.5838 234.031 63.5838 233.418V230.983H64.5073V236.524H63.5166L62.0474 233.376L61.5353 232.209H61.5101C61.5521 232.796 61.6444 233.46 61.6444 234.073V236.524H60.7209Z" fill="#171717"/>
<path d="M31.8585 239.159C31.8585 239.159 35.5898 237.255 35.5898 234.398V231.065L31.8585 229.637L28.1272 231.065V234.398C28.1272 237.255 31.8585 239.159 31.8585 239.159Z" fill="#EDEDED" stroke="#B2B2B2" stroke-width="0.7" stroke-linecap="round" stroke-linejoin="round"/>
<defs>
<linearGradient id="paint0_linear_964_5303" x1="200.455" y1="122.124" x2="163.138" y2="130.927" gradientUnits="userSpaceOnUse">
<stop stop-color="white"/>
<stop offset="1" stop-color="white" stop-opacity="0"/>
</linearGradient>
<linearGradient id="paint1_linear_964_5303" x1="270.481" y1="137.244" x2="105.433" y2="158.947" gradientUnits="userSpaceOnUse">
<stop stop-color="white"/>
<stop offset="1" stop-color="white" stop-opacity="0"/>
</linearGradient>
<linearGradient id="paint2_linear_964_5303" x1="150.729" y1="181.371" x2="-35.7044" y2="222.257" gradientUnits="userSpaceOnUse">
<stop stop-color="white"/>
<stop offset="1" stop-color="#53595C"/>
</linearGradient>
</defs>
</svg>

<svg xmlns="http://www.w3.org/2000/svg" width="297" height="275" fill="none" viewBox="0 0 297 275"><path stroke="#dfdfdf" stroke-linecap="round" d="M46.737 234.398h457.087M62.84 234.398h20.83a29.74 29.74 0 0 0 25.839-15.02l12.522-21.986a31.72 31.72 0 0 1 27.563-16.021h28.524"/><path stroke="#dfdfdf" stroke-linecap="round" d="M62.593 234.398h16.093a21.81 21.81 0 0 0 19.912-12.915l29.571-66.217a30.43 30.43 0 0 1 27.786-18.022h323.346M157.751 137.243h15.641a21.81 21.81 0 0 0 20.161-13.495l30.059-72.916A30.43 30.43 0 0 1 251.746 32h248.156"/><path stroke="url(#a)" stroke-linecap="round" stroke-width=".496" d="M157.751 137.244h15.641a21.81 21.81 0 0 0 20.161-13.496l6.902-16.743"/><path stroke="url(#b)" stroke-linecap="round" stroke-width=".496" d="M62.593 234.398h16.093a21.81 21.81 0 0 0 19.912-12.915l29.571-66.217a30.43 30.43 0 0 1 27.786-18.022h114.526"/><path stroke="url(#c)" stroke-linecap="round" stroke-width=".496" d="M52.198 234.398h31.471a29.74 29.74 0 0 0 25.84-15.02l12.522-21.986a31.72 31.72 0 0 1 27.563-16.021h3.517"/><rect width="123.533" height="19.194" x="165.125" y="170.647" fill="#fcfcfc" rx="9.597"/><rect width="123.533" height="19.194" x="165.125" y="170.647" stroke="#e8e8e8" rx="9.597"/><path fill="#171717" d="M191.273 182.744v-5.541h3.484v.814h-2.519v1.587h2.141v.814h-2.141v2.326zm5.311 0v-5.541h3.501v.814h-2.536v1.436h2.149v.814h-2.149v1.654h2.62v.823zm4.748 0 1.78-5.541h1.134l1.779 5.541h-1.024l-.428-1.511h-1.822l-.436 1.511zm1.629-2.275h1.402l-.193-.689a77 77 0 0 1-.495-1.822h-.034a51 51 0 0 1-.487 1.822zm5.68 2.275v-4.727h-1.721v-.814h4.425v.814h-1.73v4.727zm3.733.311 3.593-6.272h.832l-3.602 6.272zm5.773-.311v-5.541h.982l1.478 3.14.512 1.175h.025c-.042-.571-.134-1.268-.134-1.88v-2.435h.923v5.541h-.99l-1.47-3.148-.512-1.167h-.025c.042.587.134 1.251.134 1.863v2.452zm5.706 0v-5.541h3.5v.814h-2.535v1.436h2.149v.814h-2.149v1.654h2.619v.823zm5.42 0-.789-5.549h.982l.311 3.223c.016.471.05.932.075 1.394h.025c.101-.462.219-.932.319-1.394l.479-1.796h.621l.47 1.796c.093.454.219.924.319 1.394h.034l.075-1.394.294-3.223h.915l-.747 5.549h-1.032l-.487-2.049a15 15 0 0 1-.177-1.024h-.025c-.05.328-.109.689-.185 1.024l-.461 2.049zm5.26-2.426v-.697h3.736v.697zm5.395 2.426v-5.541h1.033l.764 2.166.269.831h.033l.252-.831.764-2.166h1.033v5.541h-.823v-2.494c0-.528.076-1.57.126-2.09h-.034l-.419 1.352-.697 1.738h-.47l-.706-1.738-.419-1.352h-.026c.042.52.126 1.562.126 2.09v2.494zm6.035 0v-5.541h3.501v.814h-2.536v1.436h2.15v.814h-2.15v1.654h2.62v.823zm5.168 0v-5.541h1.033l.764 2.166.268.831h.034l.252-.831.764-2.166h1.032v5.541h-.822v-2.494c0-.528.075-1.57.126-2.09h-.034l-.42 1.352-.697 1.738h-.47l-.705-1.738-.42-1.352h-.025c.042.52.126 1.562.126 2.09v2.494zm5.942 0v-5.541h1.612c1.125 0 1.948.344 1.948 1.36 0 .52-.311 1.033-.957 1.209v.033c.797.135 1.234.555 1.234 1.31 0 1.108-.882 1.629-2.082 1.629zm.966-3.241h.554c.772 0 1.091-.302 1.091-.823 0-.512-.352-.722-1.066-.722h-.579zm0 2.485h.688c.806 0 1.234-.302 1.234-.932 0-.596-.411-.856-1.234-.856h-.688zm4.58.756v-5.541h3.501v.814h-2.535v1.436h2.149v.814h-2.149v1.654h2.619v.823zm5.286 0v-5.541h1.83c1.134 0 2.015.403 2.015 1.637 0 .84-.436 1.352-1.1 1.578l1.318 2.326h-1.091l-1.192-2.175h-.814v2.175zm.966-2.955h.764c.755 0 1.158-.319 1.158-.949 0-.646-.403-.865-1.158-.865h-.764zm6.31 3.056a2.92 2.92 0 0 1-2.04-.815l.562-.663c.411.378.957.638 1.494.638.68 0 1.025-.285 1.025-.73 0-.462-.37-.605-.915-.823l-.748-.327c-.587-.227-1.183-.664-1.183-1.47 0-.881.789-1.553 1.905-1.553.68 0 1.31.26 1.763.705l-.503.613c-.37-.302-.747-.478-1.26-.478-.57 0-.923.243-.923.663 0 .437.445.588.94.789l.722.311c.697.285 1.192.688 1.192 1.494 0 .898-.747 1.646-2.031 1.646"/><path stroke="#b2b2b2" stroke-linecap="round" stroke-linejoin="round" stroke-width=".7" d="M176.169 175.658v5.713M181.765 178.514c.773 0 1.4-.639 1.4-1.428s-.627-1.428-1.4-1.428-1.399.639-1.399 1.428.627 1.428 1.399 1.428M176.169 184.228c.772 0 1.399-.64 1.399-1.429 0-.788-.627-1.428-1.399-1.428-.773 0-1.4.64-1.4 1.428 0 .789.627 1.429 1.4 1.429M181.766 178.514a4.33 4.33 0 0 1-1.23 3.03 4.15 4.15 0 0 1-2.968 1.255"/><rect width="58.474" height="18.825" x="17.5" y="224.612" fill="#fcfcfc" rx="9.412"/><rect width="58.474" height="18.825" x="17.5" y="224.612" stroke="#e8e8e8" rx="9.412"/><path fill="#171717" d="M44.03 236.524v-5.541h1.033l.764 2.166.27.831h.033l.252-.831.764-2.166h1.032v5.541h-.822v-2.493c0-.529.075-1.57.125-2.091h-.033l-.42 1.352-.697 1.738h-.47l-.705-1.738-.42-1.352h-.025c.042.521.126 1.562.126 2.091v2.493zm5.33 0 1.78-5.541h1.133l1.78 5.541H53.03l-.428-1.511h-1.822l-.437 1.511zm1.629-2.275h1.402l-.193-.689a80 80 0 0 1-.496-1.821h-.033a51 51 0 0 1-.487 1.821zm4.362 2.275v-.823h1.318v-3.904h-1.318v-.814h3.618v.814h-1.326v3.904h1.326v.823zm5.37 0v-5.541h.982l1.478 3.14.512 1.175h.025c-.042-.571-.134-1.267-.134-1.88v-2.435h.923v5.541h-.99l-1.47-3.148-.512-1.167h-.025c.042.587.134 1.251.134 1.864v2.451z"/><path fill="#ededed" stroke="#b2b2b2" stroke-linecap="round" stroke-linejoin="round" stroke-width=".7" d="M31.859 239.159s3.73-1.904 3.73-4.761v-3.333l-3.73-1.428-3.732 1.428v3.333c0 2.857 3.732 4.761 3.732 4.761"/><defs><linearGradient id="a" x1="200.455" x2="163.138" y1="122.124" y2="130.927" gradientUnits="userSpaceOnUse"><stop stop-color="#fff"/><stop offset="1" stop-color="#fff" stop-opacity="0"/></linearGradient><linearGradient id="b" x1="270.481" x2="105.433" y1="137.244" y2="158.947" gradientUnits="userSpaceOnUse"><stop stop-color="#fff"/><stop offset="1" stop-color="#fff" stop-opacity="0"/></linearGradient><linearGradient id="c" x1="150.729" x2="-35.704" y1="181.371" y2="222.257" gradientUnits="userSpaceOnUse"><stop stop-color="#fff"/><stop offset="1" stop-color="#53595c"/></linearGradient></defs></svg>
